!!!!SEGMENT: pl-sa--573-a-ix-53--009_anonim--polonaise.krn
!!!cenid: 18xx:610
!!!COM: Anonim
!!!COM-rismID: pe30004985
!!!CDT:
!!!CNT:
!!!OTL: Polonaise
!!!PDT:
!!!AGN: Secular; Polonaise
!!!SMS-siglum: PL-SA
!!!SMS-shelfmark: 573/A IX 53
!!!SMS-shelfwork: 009 W
!!!SMS-variant:
!!!SMS-altvar:
!!!NIFC-rismSourceID: 1001077517
!!!NIFC-rismChildID: 1001077517
!!!NIFC-islandoraID: none
!!!URL-pdf-islandora:
!!!URL-scan: https://bc.bdsandomierz.pl/dlibra/publication/1379/edition/1347/content @EN{Scan in the Sandomierz Diocese Digital Library} @PL{Skany w portalu Cyfrowa Biblioteka Diecezjalna w Sandomierzu}
!!!ONB-nifc: Str. 15-16
!!!AIN: 2 empty
!!!key:
**kern	**kern
*part2	*part1
*staff2	*staff1
*Iempty	*Iempty
*I"	*I"
*I'keyb	*I'keyb
*clefF4	*clefG2
*k[b-]	*k[b-]
*F:	*F:
*M3/4	*M3/4
=1	=1
*2\right	*2\right
!	!LO:TX:a:i:t=Polonaise
8c\L	8aL 8f\
32qqd/LLL	.
32qqc#X/	.
32qqcn/JJJ	.
8cny\J	8cc\J
8c\L	8aL 8f\
8A\	8cc\J
8F\	8aL 8f\
8A\J	8cc\J
=2	=2
*	*rep
8C\L	8aL 8f\
8F\J	8cc\J
*	*Xrep
*	*rep
4FF/	8aL 8f\
.	8cc\J
*	*Xrep
*	*rep
4r	8aL 8f\
.	8cc\J
*	*Xrep
=3	=3
!	!LO:TX:a:t=P:problem=nuty pokreślone
8c\L	8gL 8e/
8.f\J	8cc/J
*	*rep
.	8gL 8e/
16e\LL	.
16d\	8cc/J
16c\JJ	.
*	*Xrep
*	*rep
16B-\LL	8gL 8e/
16A\	.
16G\	8cc/J
16F\JJ	.
*	*Xrep
=4	=4
8c\L	8gL 8e/
8dn\J	8cc/J
*	*rep
4d-X\	8gL 8e/
.	8cc/J
*	*Xrep
*	*rep
4r	8gL 8e/
.	8ccJ 8e/
*	*Xrep
=5	=5
*	*rep
8c\L	8gL 8e/
32qqc/LLL	.
32qqB-/	.
32qqA/JJJ	.
8B-\J	8cc/J
*	*Xrep
*	*rep
8.G\L	8gL 8e/
.	8cc/J
16B-\Jk	.
*	*Xrep
*	*rep
8.E\L	8gL 8e/
.	8cc/J
16G\Jk	.
*	*Xrep
=6	=6
*	*rep
8C\L	8gL 8e/
8E\J	8cc/J
*	*Xrep
*	*rep
4C 4CC/	8gL 8e/
.	8cc/J
*	*Xrep
*	*rep
4r	8gL 8e/
.	8cc/J
*	*Xrep
=7	=7
8C\L	8b-L 8g\
8.g\J	8cc\J
*	*rep
.	8b-L 8g\
16f\LL	.
16e\	8cc\J
16f\JJ	.
*	*Xrep
*	*rep
16g\LL	8b-L 8g\
16e\	.
16c\	8cc\J
16B-\JJ	.
*	*Xrep
=8	=8
16B-\LL	8aL 8f\
16A\	.
16d\	8cc\J
16c\JJ	.
*	*rep
4c\	8aL 8f\
.	8cc\J
*	*Xrep
!LO:N:vis=8	!LO:N:vis=8
16r	16r
!	!LO:N:vis=8
16c\LL	16cc\LL
!	!LO:N:vis=8
16d\	16dd\
!	!LO:N:vis=8
16e\JJ	16ee\JJ
!!LO:LB:g=original
=9	=9
16F\LL	8ff\L
16c\	.
16A\	8ff\J
16c\JJ	.
*rep	*
16F\LL	16ff\LL
16c\	16aa\
16A\	16bb-\
16c\JJ	16ccc\JJ
*Xrep	*
*rep	*
16F\LL	16bb-\LL
16c\	16aa\
16A\	16gg\
16c\JJ	16ff\JJ
*Xrep	*
=10	=10
16F\LL	16ee\LL
16d\	16ff\
16B-\	16cc#X\
16d\JJ	16dd\JJ
*rep	*
16F\LL	4dd\
16d\	.
16B-\	.
16d\JJ	.
*Xrep	*
*rep	*
16F\LL	4r
16d\	.
16B-\	.
16d\JJ	.
*Xrep	*
=11	=11
16E\LL	16cc\LL
16c\	16ee\
16G\	16gg\
16c\JJ	16ee\JJ
*rep	*
16E\LL	16ee\LL
16c\	16gg\
16G\	16bb-\
16c\JJ	16aa\JJ
*Xrep	*
*rep	*
16E\LL	16gg\LL
16c\	16ddd\
16G\	16ccc\
16c\JJ	16bb-\JJ
*Xrep	*
=12	=12
16F\LL	16bb-\LL
16c\	16aa\
16A\	16gg\
16c\JJ	16aa\JJ
*rep	*
16F\LL	4aa\
16c\	.
16A\	.
16c\JJ	.
*Xrep	*
*rep	*
16F\LL	4r
16c\	.
16A\	.
16c\JJ	.
*Xrep	*
=13	=13
8C\L	16f\LL
.	16g\
8cJ 8A\	16a\
.	16b-\JJ
*tremolo	*
8c 8A\L	16cc\LL
.	16dd\
8c 8A\	16ee\
.	16ff\JJ
8c 8A\	16gg\LL
.	16aa\
8c 8A\J	16bb-\
.	16ccc\JJ
*Xtremolo	*
=14	=14
8F\L	8.ddd\L
8dJ 8B-\	.
.	16bb-\Jk
*tremolo	*
8d 8B-\L	16gg\LL
.	16aa\
8d 8B-\	16bb-\
.	16aa\JJ
8d 8B-\	16ccc\LL
.	16bb-\
8d 8B-\J	16aa\
.	16gg\JJ
*Xtremolo	*
=15	=15
!LO:TX:a:t=P:problem=brak caud	!
16E\LL	16ff\LL
16c\	16ee\
16G\	16aa\
16B-\JJ	16gg\JJ
*rep	*
16E\LL	16ff\LL
16c\	16ee\
16G\	16dd\
16B-\JJ	16cc\JJ
*Xrep	*
!!LO:LB:g=original
*rep	*
16E\LL	16bn\LL
16c\	16cc\
16G\	16dd\
16B-\JJ	16ee\JJ
*Xrep	*
=16	=16
8F\L	16ff\LL
.	16ee\
8C\	16aa\
.	16gg\JJ
8E\	(>4gg\
8C\J	.
4F 4FF/	8ff\)
.	8r
=17:|!|:	=17:|!|:
4c\	8gL 8e/
.	8cc/J
*	*rep
!LO:N:vis=8	!
16r	8gL 8e/
16B-\LL	.
16A\	8cc/J
16G\JJ	.
*	*Xrep
*	*rep
16F\LL	8gL 8e/
16E\	.
16A\	8cc/J
16G\JJ	.
*	*Xrep
=18	=18
*	*rep
16F\LL	8gL 8e/
16E\	.
16D\	8cc/J
16C\JJ	.
*	*Xrep
*	*rep
16BBn\LL	8gL 8e/
16C\	.
16D\	8cc/J
16C\JJ	.
*	*Xrep
*	*rep
16BB\LL	8gL 8e/
16C\	.
16D\	8cc/J
16E\JJ	.
*	*Xrep
=19	=19
!LO:TX:a:t=P:problem=mixed beam	!LO:TX:a:t=P:problem=mixed beam
8F\L	8dd\L
8FF/J	8d/J
!	!LO:N:vis=16
8r	8r
8AA\L	8f\L
8C\	8a\
8E\J	8cc\J
=20	=20
*	*^
!	!LO:TX:a:t=P:problem=brak caudy	!
8F\L	8dd/L	8aL 8f\
!	!LO:TX:a:t=P:problem=brak caudy	!
8A\	8ff/J	8cc\J
!	!LO:TX:a:t=P:problem=brak caudy	!
*	*	*rep
8c\	8aa/	8aL 8f\
8f\J	4ddd\	8cc\J
*	*	*Xrep
*	*	*rep
8c\L	.	8aL 8f\
8A\J	8ryy	8cc\J
*	*	*Xrep
*	*v	*v
=21	=21
4.c\	8gL 8e/
.	8cc/J
*	*rep
.	8gL 8e/
*Xtuplet	*
24Bn\LL	8cc/J
*	*Xrep
*	*rep
!LO:TX:a:t=h	!
24d-X\	.
24A\JJ	.
16A\LL	8gL 8e/
16G\	.
16F#X\	8cc/J
16Fn\JJ	.
*	*Xrep
=22	=22
*	*rep
16E\LL	8gL 8e/
16E-X\	.
16D\	8cc/J
16C\JJ	.
*	*Xrep
*	*rep
16C\LL	8gL 8e/
16BBn\	.
16C\	8cc/J
16BB\JJ	.
*	*Xrep
*	*rep
16C\LL	8gL 8e/
16D\	.
16E-\	8cc/J
16C\JJ	.
*	*Xrep
!!LO:LB:g=original
=23	=23
16F/LL	8aL 8f\
16FF/	.
16GG/	8cc\J
16AA/JJ	.
*	*rep
16BB-\LL	8aL 8f\
16C\	.
16D\	8cc\J
16E\JJ	.
*	*Xrep
*	*rep
16F\LL	8aL 8f\
16G\	.
16A\	8cc\J
16B-\JJ	.
*	*Xrep
=24	=24
*	*rep
16c\LL	8aL 8f\
16d\	.
16e\	8cc\J
16f\JJ	.
*	*Xrep
*	*rep
8c\L	8aL 8f\
8c\J	8cc\J
*	*Xrep
*	*rep
!LO:N:vis=16	!
8r	8aL 8f\
8c#X\	8cc\J
*	*Xrep
=25	=25
*	*tremolo
16d\LL	8dd 8b-/L
!LO:TX:a:t=tak:problem=lub inna notatka (nieczytelna)	!
16c\	.
16e\	8dd 8b-/
16c\JJ	.
8G\L	8dd 8b-/
8G\	8dd 8b-/J
8B-\	4ryy
8d\J	.
=26	=26
16c\LL	8cc 8a/L
16Bn\	.
16c\	8cc 8a/
16A\JJ	.
8F\L	8cc 8a/
8f\J	8cc 8a/J
!LO:N:vis=16	!
8r	4ryy
8A\	.
=27	=27
16G\LL	8b- 8g/L
16A\	.
16G\	8b- 8g/
16F#X\JJ	.
16G\LL	8b- 8g/
16B-\	.
16d\	8b- 8g/J
16c\JJ	.
*	*Xtremolo
16B-\LL	4ryy
16A\	.
16G\	.
16F#\JJ	.
=28	=28
16E\LL	8g\L 8e\
16C\	.
16D\	8cc\J
16E\JJ	.
*	*rep
16F\LL	8g\L 8e\
16G\	.
16A\	8cc\J
16B-\JJ	.
*	*Xrep
*	*rep
16c\LL	8g\L 8e\
16Bn\	.
!	!LO:TX:i:b:t=Da Capo
!	!LO:TX:b:t=P:problem=napis za kreską pomiędzy pięcioliniami
16B-X\	8cc\J
16G\JJ	.
*	*Xrep
!!LO:PB:g=original
=29	=29
*clefF4	*clefG2
*k[b-]	*k[b-]
*M3/4	*M3/4
!	!LO:TX:a:i:t=Trio
*clefG2	*
*tremolo	*
!LO:TX:b:t=P:problem=klucz F4 na początku systemu. Klucz G2 przed 8f 8a	!
8aL 8f/	4.aa\
8cc/	.
8a 8f/	.
8cc/	16gg\LL
.	16ff\JJ
8a 8f/	16ee\LL
.	16ff\
8cc/J	16aa\
.	16ff\JJ
=30	=30
*	*clefF4
*rep	*
!LO:TX:b:t=P:problem=brak oznaczeń cyfrowych nad powtórzeniami	!
8aL 8f/	4.C/
8cc/	.
8a 8f/	.
8cc/	16D/LL
.	16C/JJ
8a 8f/	16BB-/LL
.	16AA/
8cc/J	16GG/
.	16FF/JJ
*Xtremolo	*
*Xrep	*
*clefF4	*
=31	=31
*	*clefG2
8C\L	16e\LL
.	16g\
8B-J 8G\	16b-\
.	16ee\JJ
*tremolo	*
8B- 8G\L	8gg\L
8B- 8G\	8ee\
!	!LO:TX:i:a:t=raz
8B- 8G\	8cc\
8B- 8G\J	8b-\J
*Xtremolo	*
=32	=32
*tremolo	*
!LO:TX:b:t=P:problem=w źródle jedna belka	!
16A 16F\L	16b-\LL
16c\	16a\
16A 16F\	16cc\
16c\	16b-\JJ
16A 16F\	4.a\
16c\J	.
*Xtremolo	*
4.ryy	.
.	.
.	.
.	.
.	8cc\
.	.
=33	=33
*clefG2	*
*tremolo	*
8cc 8a 8f/L	4.aa\
8cc 8a 8f/	.
8cc 8a 8f/	.
8cc 8a 8f/	16gg\LL
.	16ff\JJ
8cc 8a 8f/	16ee\LL
.	16ff\
8cc 8a 8f/J	16aa\
.	16ff\JJ
*	*
=34Xtremolo	=34
4b- 4g/	8dd\L
.	8ddd\J
*tremolo	*
!LO:TX:a:t=P:problem=nieczytelny napis nad nutami	!
8dd 8b-/L	16ddd\LL
.	16ccc\
8dd 8b-/J	16eee\
.	16ddd\JJ
*Xtremolo	*
4ryy	16ccc\LL
.	16bb-\
.	16aa\
.	16gg\JJ
=35	=35
8eL 8G/	16ff\LL
.	16ee\
8c/J	16dd\
.	16cc\JJ
*rep	*
8eL 8G/	16bn\LL
.	16cc\
8c/J	16ee\
.	16gg\JJ
*Xrep	*
*rep	*
8eL 8G/	8ccc\L
8c/J	8bb-X\J
*Xrep	*
*clefF4	*
!!LO:LB:g=original
=36	=36
4F\	16aa\LL
.	16ff\
.	16ee\
.	16gg\JJ
4C\	4gg\
4F\	8ff\
.	8r
=37:|!|:	=37:|!|:
16E\LL	16bb-\LL
16c\	16gg\
16G\	16ee\
16c\JJ	16cc\JJ
*rep	*
16E\LL	16b-/LL
16c\	16g/
16G\	16e/
16c\JJ	16c/JJ
*Xrep	*
*rep	*
16E\LL	16B-/LL
16c\	16G/
16G\	16c/
16c\JJ	16B-/JJ
*Xrep	*
=38	=38
16AA\LL	16A/LL
16F\	16c/
16C\	16f/
16F\JJ	16a/JJ
*rep	*
16AA\LL	16cc\LL
16F\	16a\
16C\	16ff\
16F\JJ	16cc\JJ
*Xrep	*
*rep	*
16AA\LL	16aa\LL
16F\	16ff\
16C\	16cc\
16F\JJ	16a\JJ
*Xrep	*
=39	=39
8C\L	16g\LL
.	16b-\JJ
8B-J 8G\	4dd\
*tremolo	*
8B- 8G\L	.
8B- 8G\	16cc\LL
.	16b-\JJ
8B- 8G\	16a/LL
.	16b-/
8B- 8G\J	16d/
.	16g/JJ
*Xtremolo	*
=40	=40
4F 4FF/	4ff 4a\
8E\L	8ggL 8ee\
8c 8C\	8ee 8cc\
8B- 8BB-\	8ff 8dd\
!	!LO:TX:i:a:t=Trio Do Capo
!	!LO:TX:a:t=P:problem=napis na górnej pięciolinii za kreską taktową
8cJ 8C\	8ggJ 8ee\
!!LO:LB:g=original
=41	=41
*clefF4	*clefG2
*k[b-]	*k[b-]
*M3/4	*M3/4
!	!LO:TX:a:t=P:problem=klucze przed znakami
!	!LO:TX:a:t=P:problem=tylko fragment części, być może alternatywne Trio
!	!LO:TX:i:a:t=Trio
8F\L	8ffL 8a\
8f\J	8ff 8a\
8e\L	8gg 8ee\
8c\J	8gg 8ee\
8F\L	8aa 8ff\
8F\J	8aaJ 8ff\
=42	=42
8B-\L	8.bb-L 8.gg\
8Bn\	.
.	16aaJk 16ff\
8c\	8ggL 8ee\
!	!LO:N:vis=8.
8c\	8ccc\J
8F\	4ff 4a\
8F\J	.
=43	=43
8AL 8F\	4.ccc\
8c\J	.
*rep	*
8AL 8F\	.
8c\J	16ddd\LL
.	16ccc\JJ
*Xrep	*
*rep	*
8AL 8F\	16bb-\LL
.	16ccc\
*Xrep	*
*rep	*
8c\J	16ddd\
.	16eee\JJ
*Xrep	*
=44	=44
*rep	*
8AL 8F\	8fff\L
8c\J	8ccc\
*Xrep	*
*rep	*
8AL 8F\	8ddd\
8c\J	8ccc\J
*Xrep	*
*rep	*
8AL 8F\	16bb-\LL
.	16aa\
*Xrep	*
*rep	*
8c\J	16gg\
.	16ff\JJ
*Xrep	*
=45	=45
8B-L 8G\	(>16ff\LL
.	16ee\J)
8C\J	8ee\J|
*rep	*
8B-L 8G\	8r
8C\J	8cc\L
*Xrep	*
*rep	*
8B-L 8G\	8dd\
8C\J	8ee\J
*Xrep	*
=46	=46
!	!LO:TX:a:t=P:problem=brak caudy
8AL 8F\	8ff\L
!	!LO:TX:a:t=P:problem=brak caudy
8C\J	8ff\J
*rep	*
8AL 8F\	16ff\LL
.	16aa\
8C\J	16ccc\
.	16aa\JJ
*Xrep	*
*rep	*
8AL 8F\	8aa\L
8C\J	8gg\J
*Xrep	*
=47	=47
8c\L	8a\L
8c\J	8a\J
!LO:TX:i:a:t=raz	!
8d\L	16dd\LL
.	16cc\
8e\	16b-\
.	16a\JJ
8d\	4ryy
8c\J	.
=48	=48
*	*rep
8c\L	8a\L
8c\J	8a\J
8d\L	16dd\LL
.	16cc\
8c\	16b-\
.	16a\JJ
8B-\	4ryy
8A\J	.
*	*Xrep
!!LO:LB:g=original
=49	=49
4.c\	8gL 8e/
.	8cc/J
*	*rep
.	8gL 8e/
24B-\LL	8cc/J
24G\	.
24E\JJ	.
*	*Xrep
*	*rep
16C\LL	8gL 8e/
16D\	.
16E\	8cc/J
16C\JJ	.
*	*Xrep
=50	=50
8F\L	8aL 8f/
8A\J	8cc/J
!LO:N:vis=4	!
8FF/	2ryy
16f\LL	.
16e\JJ	.
16d\LL	.
16c\	.
16B-\	.
16A\JJ	.
=51	=51
*	*tremolo
8.c\L	8b- 8g/L
.	8b- 8g/
16Bn\Jk	.
16B-X\LL	8b- 8g/
16A\	.
16c\	8b- 8g/J
16d\JJ	.
*	*Xtremolo
16c\LL	4ryy
16A\	.
16B-\	.
16G\JJ	.
=52	=52
16F\LL	8gL 8e/
16E\	.
16A\	8cc/J
16G\JJ	.
*	*rep
4G\	8gL 8e/
.	8cc/J
*	*Xrep
*	*rep
4F\	8gL 8e/
.	8cc/J
*	*Xrep
=53:|!|:	=53:|!|:
*rep	*
16F\LL	16c/LL
16E\	16B-/
16A\	16c/
16G\JJ	16B-/JJ
*	*rep
4G\	16c/LL
.	16B-/
.	16c/
.	16B-/JJ
*	*Xrep
4F\	16c/LL
.	16d/
.	16e/
.	16c/JJ
*Xrep	*
=54	=54
*rep	*
16F\LL	16f/LL
16E\	16e/
16A\	16f/
16G\JJ	16e/JJ
*	*rep
4G\	16f/LL
.	16e/
.	16f/
.	16e/JJ
*	*Xrep
4F\	16f/LL
.	16g/
.	16a/
.	16f/JJ
*Xrep	*
=55	=55
8F/L	8ffL 8a/
8BB-/J	8gg 8ee/
*rep	*
8F/L	8aa 8ff/
8BB-/J	8gg 8ee/
*Xrep	*
*rep	*
8F/L	8aa 8ff/
8BB-/J	8ggJ 8ee/
*Xrep	*
==	==
*-	*-
!!!system-decoration: s1,s2
!!!RDF**kern: > = above
!!!RDF**kern: < = below
!!!RDF**kern: | = vertical stroke
!!!EED: Mateusz Mrugas
!!!EEV: 2020-12-10
!!!ENC: Berenika Jozajtis
!!!END: 2020-06-21
!!!YEC: Copyright 2022 Narodowy Instytut Fryderyka Chopina (https://polishscores.org)
!!!YEM: License CC-BY-4.0 (https://creativecommons.org/licenses/by/4.0)
